Papirus/64x64/apps/syncthing-gtk.svg

<svg xmlns="http://www.w3.org/2000/svg" width="64" height="64" version="1">
 <path style="opacity:0.2" d="m 4.0507997,32.000415 c -0.0118,0.333995 -0.050799,0.66199 -0.050799,0.999985 C 4.0000004,48.512179 16.487822,61 31.9996,61 47.511378,61 59.9992,48.512179 59.9992,33.0004 c 0,-0.337675 -0.03904,-0.66527 -0.05078,-0.999985 C 59.420428,47.0422 47.172603,59.000029 31.99882,59.000029 16.824637,59.000029 4.5772122,47.0422 4.0492197,32.000415 Z"/>
 <rect style="fill:#1ca4d4" width="55.999" height="55.999" x="-60" y="-60" rx="28" ry="28" transform="matrix(0,-1,-1,0,0,0)"/>
 <path style="opacity:0.2" d="M 31.9996,13.000572 A 19.999714,19.999714 0 0 0 11.999886,33.000286 19.999714,19.999714 0 0 0 31.9996,53 19.999714,19.999714 0 0 0 51.999314,33.000286 19.999714,19.999714 0 0 0 50.769332,26.172384 l 0.04296,-0.03126 -0.105459,-0.148437 A 19.999714,19.999714 0 0 0 31.9991,13.000872 Z m 0,1.999972 a 17.999743,17.999743 0 0 1 15.976372,9.722461 L 35.49615,33.640877 14.204454,35.57485 A 17.999743,17.999743 0 0 1 14.000457,33.000886 17.999743,17.999743 0 0 1 32.0002,15.001144 Z m 17.077956,12.378823 a 17.999743,17.999743 0 0 1 0.921987,5.619919 17.999743,17.999743 0 0 1 -5.213926,12.651819 L 37.918515,35.350453 49.078556,27.377967 Z m -13.781003,9.08967 7.347495,11.019442 A 17.999743,17.999743 0 0 1 32.0002,50.998429 17.999743,17.999743 0 0 1 14.828646,38.33061 l 20.467707,-1.863973 z"/>
 <path style="fill:#ffffff" d="M 31.9996,12.000715 A 19.999714,19.999714 0 0 0 11.999886,32.000429 19.999714,19.999714 0 0 0 31.9996,52.000143 19.999714,19.999714 0 0 0 51.999314,32.000429 19.999714,19.999714 0 0 0 50.769332,25.172527 l 0.042,-0.032 -0.103999,-0.147998 A 19.999714,19.999714 0 0 0 31.9996,12.000715 Z m 0,1.999971 a 17.999743,17.999743 0 0 1 15.975772,9.721861 L 35.49555,32.64042 14.203854,34.574392 A 17.999743,17.999743 0 0 1 13.999857,32.000429 17.999743,17.999743 0 0 1 31.9996,14.000686 Z m 17.077756,12.377823 a 17.999743,17.999743 0 0 1 0.921987,5.62192 17.999743,17.999743 0 0 1 -5.213926,12.651819 L 37.917515,34.352395 49.077356,26.378509 Z m -13.781803,9.08987 7.347895,11.019843 A 17.999743,17.999743 0 0 1 31.9996,50.000172 17.999743,17.999743 0 0 1 14.828046,37.332353 l 20.467707,-1.863974 z"/>
 <g style="opacity:0.2" transform="matrix(1.9999714,0,0,1.9999714,5.760572e-5,1.000715)">
  <circle cx="7" cy="18" r="2"/>
  <circle cx="22" cy="23" r="2"/>
  <circle cx="25" cy="12" r="2"/>
  <circle cx="18" cy="17" r="2"/>
 </g>
 <g style="fill:#ffffff" transform="matrix(1.9999714,0,0,1.9999714,5.760572e-5,8.866e-4)">
  <circle cx="7" cy="18" r="2"/>
  <circle cx="22" cy="23" r="2"/>
  <circle cx="25" cy="12" r="2"/>
  <circle cx="18" cy="17" r="2"/>
 </g>
 <path style="opacity:0.2;fill:#ffffff" d="M 32 4 C 16.488222 4 4 16.488222 4 32 C 4 32.113554 4.0112846 32.224034 4.0175781 32.335938 C 4.3691163 17.134398 16.710946 5 32 5 C 47.289054 5 59.630884 17.134398 59.982422 32.335938 C 59.988797 32.224034 60 32.113554 60 32 C 60 16.488222 47.511778 4 32 4 z"/>
</svg>

<svg xmlns="http://www.w3.org/2000/svg" width="64" height="64" version="1">
 <circle cx="32" cy="33" r="28" style="opacity:0.2"/>
 <circle style="fill:#1ca4d4" cx="32" cy="32" r="28"/>
 <path d="M 32,13 C 20.954,13 12,21.955 12,33 12,44.046 20.954,53 32,53 43.045,53 52,44.046 52,33 51.991,30.67 51.574,28.359 50.769,26.173 L 50.811,26.141 50.707,25.993 C 47.787,18.187 40.333,13.01 32,13 Z M 32,15 C 38.723,15.003 44.884,18.753 47.975,24.723 L 35.496,33.64 14.204,35.574 C 14.074,34.722 14.006,33.862 14,33 14,23.059 22.059,15 32,15 Z M 49.077,27.379 C 49.681,29.192 49.993,31.089 50,33 49.995,37.74 48.121,42.286 44.785,45.652 L 37.918,35.352 Z M 35.296,36.468 42.643,47.488 C 39.56,49.762 35.831,50.992 32,51 24.12,50.991 17.162,45.858 14.828,38.332 Z" style="opacity:0.2"/>
 <path style="fill:#ffffff" d="M 32,12 C 20.954,12 12,20.955 12,32 12,43.046 20.954,52 32,52 43.045,52 52,43.046 52,32 51.991,29.67 51.574,27.359 50.769,25.173 L 50.811,25.141 50.707,24.993 C 47.787,17.187 40.333,12.01 32,12 Z M 32,14 C 38.723,14.003 44.884,17.753 47.975,23.723 L 35.496,32.64 14.204,34.574 C 14.074,33.722 14.006,32.862 14,32 14,22.059 22.059,14 32,14 Z M 49.077,26.379 C 49.681,28.192 49.993,30.089 50,32 49.995,36.74 48.121,41.286 44.785,44.652 L 37.918,34.352 Z M 35.296,35.468 42.643,46.488 C 39.56,48.762 35.831,49.992 32,50 24.12,49.991 17.162,44.858 14.828,37.332 L 35.296,35.468 Z"/>
 <circle cx="14" cy="37" r="4" style="opacity:0.2"/>
 <circle style="fill:#ffffff" cx="14" cy="36" r="4"/>
 <circle cx="44" cy="47" r="4" style="opacity:0.2"/>
 <circle style="fill:#ffffff" cx="44" cy="46" r="4"/>
 <circle cx="50" cy="25" r="4" style="opacity:0.2"/>
 <circle style="fill:#ffffff" cx="50" cy="24" r="4"/>
 <circle cx="36" cy="35" r="4" style="opacity:0.2"/>
 <circle style="fill:#ffffff" cx="36" cy="34" r="4"/>
 <path style="opacity:0.2;fill:#ffffff" d="M 32 4 A 28 28 0 0 0 4 32 A 28 28 0 0 0 4.0215 32.586 A 28 28 0 0 1 32 5 A 28 28 0 0 1 59.979 32.414 A 28 28 0 0 0 60 32 A 28 28 0 0 0 32 4 z"/>
</svg>
